X:1
T:Amman, 76.76 D
T:Amman, 76.76 D
T:Leander Lycurgus Pickett, 1894
T:Public Domain Courtesy of the Cyber Hymnal™
C:Leander Lycurgus Pickett, 1894
Z:Public Domain
Z:Courtesy of the Cyber Hymnal™
%%score ( 1 2 ) ( 3 4 )
L:1/8
Q:1/4=86
M:2/4
K:Eb
V:1 treble 
V:2 treble 
V:3 bass 
V:4 bass 
V:1
 [EB] | [EB][EG] E[Ec] | [EB]2 [EG]E | [DF][DB] [DB][FA] | [EG]3 [EB] | [EB][EG] E[Ec] | %6
 [EB]2 [EG][EB] | [EB][Ee] [Ge][Ad] | [Ge]3 [EB] | [B,B][B,B] [EB][EB] | [Ec]2 [EB][EB] | %11
 [EB][EG] E[EG] | (F2 !fermata!B)[EB] | [B,B][B,B] [EB][EB] | [Ec]2 [EB][EB] | [EB]E [EG][DF] | %16
 E3 |] %17
V:2
 x | x2 E x | x3 E | x4 | x4 | x2 E x | x4 | x4 | x4 | x4 | x4 | x2 E x | D3 x | x4 | x4 | x E x2 | %16
 E3 |] %17
V:3
 [E,G,] | [E,G,][E,B,] [E,G,][E,A,] | [E,G,]2 [E,B,][E,G,] | [B,,B,][B,,F,] [B,,F,][B,,B,] | %4
 [E,B,]3 [E,G,] | [E,G,][E,B,] [E,G,][E,A,] | [E,G,]2 [E,B,][E,G,] | [E,G,][G,B,] B,[B,,B,] | %8
 [E,B,]3 [E,G,] | [D,F,][E,G,] [F,A,][G,B,] | A,2 [G,B,][E,G,] | [E,G,][E,B,] [G,B,][E,B,] | %12
 [B,,A,]3 [E,G,] | [D,F,][E,G,] [F,A,][G,B,] | A,2 [G,B,][E,G,] | [G,B,][A,C] B,[B,,A,] | %16
 [E,G,]3 |] %17
V:4
 x | x4 | x4 | x4 | x4 | x4 | x4 | x2 B, x | x4 | x4 | A,2 x2 | x4 | x4 | x4 | A,2 x2 | x2 B, x | %16
 x3 |] %17

